packages/ffe-icons/icons/filled/sm/frame_person_off.svg

<svg xmlns="http://www.w3.org/2000/svg" height="20" viewBox="0 -960 960 960" width="20"><path d="M797.001-90.078 771.462-116H649.999q-11.069 0-18.534-7.405Q624-130.811 624-141.79q0-10.98 7.465-18.595Q638.93-168 649.999-168h69.465l-89.694-89.694H282.154q-13.761 0-22.957-9.135-9.196-9.136-9.196-22.808v-26.056q0-17.606 7.346-32.841t22.423-25.081q38.231-22.693 88.616-38.693 50.385-16 87.77-16.692h2.308L168-718.079v68.08q0 11.069-7.405 18.534Q153.191-624 142.211-624q-10.979 0-18.594-7.465-7.616-7.465-7.616-18.534v-120.463L98.694-788.77q-7.923-7.923-7.808-17.692.115-9.769 8.423-18.076 8.307-8.308 17.884-8.308t18.236 8.645l697.989 697.634q8.275 8.26 8.467 18.403.192 10.143-8.115 18.087-7.975 8.307-18.218 8.307t-18.551-8.308ZM843.999-310v92.769L792-269.231v-40.77q0-11.069 7.405-18.534Q806.809-336 817.789-336q10.979 0 18.594 7.465 7.616 7.465 7.616 18.534Zm-663.69 194q-26.308 0-45.308-19t-19-45.308v-129.692q0-11.069 7.405-18.534Q130.811-336 141.79-336q10.98 0 18.595 7.465Q168-321.07 168-310.001v129.692q0 4.616 3.846 8.463 3.847 3.846 8.463 3.846h129.692q11.069 0 18.534 7.405Q336-153.191 336-142.211q0 10.979-7.465 18.594-7.465 7.616-18.534 7.616H180.309ZM792-649.999v-129.692q0-4.616-3.846-8.463-3.847-3.846-8.463-3.846H649.999q-11.069 0-18.534-7.405Q624-806.809 624-817.789q0-10.979 7.465-18.594 7.465-7.616 18.534-7.616h129.692q26.308 0 45.308 19t19 45.308v129.692q0 11.069-7.405 18.534Q829.189-624 818.21-624q-10.98 0-18.595-7.465Q792-638.93 792-649.999Zm-574.768-194h92.769q11.069 0 18.534 7.405Q336-829.189 336-818.21q0 10.98-7.465 18.595Q321.07-792 310.001-792h-40.77l-51.999-51.999Zm372.767 251.692q0 25.538-10.577 46.346-10.576 20.807-28.268 35.884L397.77-663.461q15.077-17.692 35.884-28.269 20.808-10.576 46.346-10.576 45.384 0 77.692 32.307 32.307 32.308 32.307 77.692Z"/></svg>

<svg xmlns="http://www.w3.org/2000/svg" height="20" viewBox="0 -960 960 960" width="20"><path d="M797-90.08 771.46-116H650q-11.07 0-18.53-7.41-7.47-7.4-7.47-18.38 0-10.98 7.47-18.59Q638.93-168 650-168h69.46l-89.69-89.69H282.15q-13.76 0-22.95-9.14-9.2-9.13-9.2-22.81v-26.05q0-17.61 7.35-32.84 7.34-15.24 22.42-25.09 38.23-22.69 88.62-38.69 50.38-16 87.77-16.69h2.3L168-718.08V-650q0 11.07-7.4 18.53-7.41 7.47-18.39 7.47t-18.59-7.47Q116-638.93 116-650v-120.46l-17.31-18.31q-7.92-7.92-7.8-17.69.11-9.77 8.42-18.08 8.31-8.31 17.88-8.31 9.58 0 18.24 8.65l697.99 697.63q8.27 8.26 8.46 18.41.2 10.14-8.11 18.08-7.97 8.31-18.22 8.31-10.24 0-18.55-8.31ZM844-310v92.77l-52-52V-310q0-11.07 7.4-18.53 7.41-7.47 18.39-7.47t18.59 7.47Q844-321.07 844-310ZM180.31-116Q154-116 135-135q-19-19-19-45.31V-310q0-11.07 7.41-18.53 7.4-7.47 18.38-7.47 10.98 0 18.59 7.47Q168-321.07 168-310v129.69q0 4.62 3.85 8.46 3.84 3.85 8.46 3.85H310q11.07 0 18.53 7.4 7.47 7.41 7.47 18.39t-7.47 18.59Q321.07-116 310-116H180.31ZM792-650v-129.69q0-4.62-3.85-8.46-3.84-3.85-8.46-3.85H650q-11.07 0-18.53-7.4-7.47-7.41-7.47-18.39t7.47-18.59Q638.93-844 650-844h129.69Q806-844 825-825q19 19 19 45.31V-650q0 11.07-7.41 18.53-7.4 7.47-18.38 7.47-10.98 0-18.59-7.47Q792-638.93 792-650ZM217.23-844H310q11.07 0 18.53 7.41 7.47 7.4 7.47 18.38 0 10.98-7.47 18.59Q321.07-792 310-792h-40.77l-52-52ZM590-592.31q0 25.54-10.58 46.35-10.57 20.81-28.27 35.88L397.77-663.46q15.08-17.69 35.88-28.27 20.81-10.58 46.35-10.58 45.38 0 77.69 32.31Q590-637.69 590-592.31Z"/></svg>
